X:1
T:Regali ex progenie - Handl
T:James Gibb editions
T:#
%%score [ 1 2 3 4 ]
L:1/8
Q:1/4=200
M:none
K:F
V:1 treble nm="Soprano" snm="S"
V:2 treble nm="Alto" snm="A"
V:3 treble-8 nm="Tenor" snm="T"
V:4 bass nm="Bass" snm="B"
V:1
"^Regali ex progenie""^Jacob Handl\n(1550-1591)" D8 G8 | G4 G8 F4 | B12 B4 | A4 D8 G4 | A4 A8 G4 | %5
w: Re- ga-|li ex pro-|ge- ni-|e, re- ga-|li ex pro-|
 A6 A2 (B4 A2 G2 | A12) A4 | G4 F8 D4 | E4 F8 G4- | G4 ^F4 G8 | =F4 (B6 A2 A4) | B4 d4 c4 B4- | %12
w: ge- ni- e * *|* Ma-|ri- a ex-|or- ta re\-|* ful- get,|re- ful\- * *|get, Ma- ri- a|
 B4 A4 G4 F2 F2 | (G2 F2 F2 ED E8) | D8 z8 | z4 d4 c4 B4 | A4 d4 c8 | B4 (B6 A2 A4) | B4 B8 B4 | %19
w: * ex- or- ta re-|ful\- * * * * *|get,|Ma- ri- a|ex- or- ta|re- ful\- * *|get: cu- ius|
 A6 B2 A4 G4 | ^F8 z4 A4 | B4 A4 G4 F4 | G4 (B6 A2 A4- | A4 G8) ^F4 | G4 A8 A4 | B6 A2 G4 G4 | %26
w: vi- ta in- cly-|ta cun-|ctas il- lu- strat|Ec- cle\- * *|* * si-|as, cu- ius|vi- ta in- cly-|
 F4 B8 B4 | A6 B2 A4 G4 | ^F8 z4 A4 | B4 A4 G4 F4 | %30
w: ta, cu- ius|vi- ta in- cly-|ta, cun-|ctas il- lu- strat|
 G4[Q:1/4=197] (B6[Q:1/4=194] A2[Q:1/4=192] A4- |[Q:1/4=189] A4[Q:1/4=185] G8)[Q:1/4=181] ^F4 | %32
w: Ec- cle\- * *|* * si-|
[Q:1/4=175] G16- |[Q:1/4=170] G16 |] %34
w: as.||
V:2
 z16 | G,8 D8 | D4 D8 B,4 | D4 F4 D4 D4 | D4 F4 F4 D4 | E6 E2 F4 G4- | G4 F8 E4 | D8 C4 D4 | %8
w: |Re- ga-|li ex pro-|ge- ni- e, re-|ga- li ex pro-|ge- ni- e Ma\-|* ri- a|ex- or- ta|
 G4 C4 D4 C4 | D8 B,4 C4 | D4 F4 F4 F4 | D8 z4 G4 | F4 E4 D4 C4 | D4 D8 ^C4 | D4 F4 E4 D4 | %15
w: re- ful- get, Ma-|ri- a ex-|or- ta re- ful-|get, Ma-|ri- a ex- or-|ta re- ful-|get, Ma- ri- a|
 A,4 F4 F8- | F4 F4 F8 | F4 F4 F8 | D4 F8 F4 | F6 F2 F4 D4 | D16- | D8 z4 D4 | _E4 D4 C4 C4- | %23
w: ex- or- ta|* re- ful-|get, re- ful-|get: cu- ius|vi- ta in- cly-|ta|* cun-|ctas il- lu- strat|
 C4 B,4 A,6 A,2 | B,4 F8 F4 | F6 F2 D4 C4 | D4 F8 F4 | F6 F2 F4 D4 | D16- | D8 z4 D4 | %30
w: * Ec- cle- si-|as, cu- ius|vi- ta in- cly-|ta, cu- ius|vi- ta in- cly-|ta|* cun-|
 _E4 D4 C4 C4- | C4 B,4 A,6 A,2 | G,4 D4 _E4 E4 | D16 |] %34
w: ctas il- lu- strat|* Ec- cle- si-|as, Ec- cle- si-|as.|
V:3
 z16 | z8 D8 | G8 G4 G4- | G4 F4 B4 B4 | A4 A4 d4 d4 | d4 ^c4 d4 _e4 | d4 d8 =c4 | B8 A4 B4- | %8
w: |Re-|ga- li ex|* pro- ge- ni-|e, re- ga- li|ex pro- ge- ni-|e Ma- ri-|a ex- or\-|
 B4 A8 G4 | A8 G8 | z4 d4 c8 | B8 _e8 | d4 c4 B4 A4 | G4 B4 A8 | D8 z4 d4 | c4 B4 A4 d4 | %16
w: * ta re-|ful- get,|Ma- ri-|a, Ma-|ri a ex- or-|ta re- ful-|get, Ma-|ri- a ex- or-|
 c4 B8 A4 | B4 d4 c8 | B4 d8 d4 | c6 d2 c4 B4 | A4 A4 B4 A4 | G4 ^F4 G4 A2 =F2 | c4 d4 _e4 e4 | %23
w: ta re- ful-|get, re- ful-|get: cu- ius|vi- ta in- cly-|ta cun- ctas il-|lu- strat Ec- cle- si-|as, Ec- cle- si-|
 d16 | z4 c8 c4 | d6 c2 B4 G4 | A4 d8 d4 | c6 d2 c4 B4 | A4 A4 B4 A4 | G4 ^F4 G4 A2 =F2 | %30
w: as,|cu- ius|vi- ta in- cly-|ta, cu- ius|vi- ta in- cly-|ta cun- ctas il-|lu- strat Ec- cle- si-|
 c4 d4 _e4 e4 | d16 | =B8 c4 c4 | =B16 |] %34
w: as, Ec- cle- si-|as,|Ec- cle- si-|as.|
V:4
 z16 | z16 | z8 G,,8 | D,8 G,4 G,4- | G,4 F,4 B,4 B,4 | A,8 z8 | z16 | z8 z4 G,4- | G,4 F,8 E,4 | %9
w: ||Re-|ga- li ex|* pro- ge- ni-|e||Ma\-|* ri- a|
 D,8 _E,8 | D,4 B,,4 F,8 | B,,8 z8 | z16 | z16 | z4 D,4 C,4 B,,4 | F,8 F,8 | F,4 B,4 F,8 | %17
w: ex- or-|ta re- ful-|get,|||Ma- ri- a|ex- or-|ta re- ful-|
 B,,4 B,4 F,8 | B,,4 B,,8 B,,4 | F,6 B,,2 F,4 G,4 | D,16 | z4 D,4 _E,4 D,4 | C,4 B,,4 C,8 | %23
w: get, re- ful-|get: cu- ius|vi- ta in- cly-|ta|cun- ctas il-|lu- strat Ec-|
 D,12 D,4 | G,4 F,8 F,4 | B,6 F,2 G,4 _E,4 | D,4 B,,8 B,,4 | F,6 B,,2 F,4 G,4 | D,16 | %29
w: cle- si-|as, cu- ius|vi- ta in- cly-|ta, cu- ius|vi- ta in- cly-|ta|
 z4 D,4 _E,4 D,4 | C,4 B,,4 C,8 | D,12 D,4 | G,4 G,4 C,6 C,2 | G,16 |] %34
w: cun- ctas il-|lu- strat Ec-|cle- si-|as, Ec- cle- si-|as.|

